svgs/sharp-duotone-regular/stapler.svg

<svg xmlns="http://www.w3.org/2000/svg" viewBox="0 0 640 512"><!--! Font Awesome Pro 7.1.0 by @fontawesome - https://fontawesome.com License - https://fontawesome.com/license (Commercial License) Copyright 2025 Fonticons, Inc. --><path opacity=".4" fill="currentColor" d="M69.7 191.9l389.9 97.5 36.4 9.1 0 133.5 96 0 0-162.3-357.8-178.9C220 83.7 204.4 80 188.6 80 150 80 114.8 101.8 97.5 136.3L69.7 191.9z"/><path fill="currentColor" d="M448 384l0 48-416 0 0 48 608 0 0-240-384.4-192.2c-20.8-10.4-43.8-15.8-67-15.8-56.8 0-108.7 32.1-134 82.8-23.5 47-41.7 83.4-54.6 109.2 37 9.3 58.4 14.6 64 16l0 144 384 0zm0-48l-336 0 0-84 336 84zm96 96l-48 0 0-133.5-36.4-9.1-389.9-97.5 27.8-55.6c17.3-34.5 52.5-56.3 91.1-56.3 15.8 0 31.4 3.7 45.6 10.8l357.8 178.9 0 162.3-48 0z"/></svg>

<svg xmlns="http://www.w3.org/2000/svg" viewBox="0 0 640 512"><!--! Font Awesome Pro 6.7.2 by @fontawesome - https://fontawesome.com License - https://fontawesome.com/license (Commercial License) Copyright 2024 Fonticons, Inc. --><defs><style>.fa-secondary{opacity:.4}</style></defs><path class="fa-secondary" d="M69.7 191.9l389.9 97.5 36.4 9.1 0 37.5 0 96 48 0 48 0 0-96 0-48 0-18.3L234.2 90.8C220 83.7 204.4 80 188.6 80c-38.6 0-73.9 21.8-91.1 56.3L69.7 191.9z"/><path class="fa-primary" d="M448 384l0 48L32 432l0 48 416 0 48 0 48 0 48 0 48 0 0-48 0-96 0-48 0-48L255.6 47.8C234.8 37.4 211.9 32 188.6 32C131.9 32 80 64.1 54.6 114.8L22 180 0 224l47.7 11.9L64 240l0 120 0 24 24 0 360 0zm0-48l-336 0 0-84 336 84zm96 96l-48 0 0-96 0-37.5-36.4-9.1L69.7 191.9l27.8-55.6C114.8 101.8 150 80 188.6 80c15.8 0 31.4 3.7 45.6 10.8L592 269.7l0 18.3 0 48 0 96-48 0z"/></svg>
